X: 24326
T: Lough Mountain
R: reel
M: 4/4
K: Edorian
B zzE FEFA|Be zd zBAF|zAAG FDFA|dfed BAFA|
B zzE FEFA|Be zd zBAF|ABde fedf|1 edBA BE~E2:|2 edBA BE (3Bcd||
|:e3d BA (3Bcd|egfd edBA|d2 dB ADFA|dfed BAfB|
e3d BA (3Bcd|egfd edBc|dd2d- defe|1 dBAF E z(3Bcd:|2 dBAF E z3||

